dist/img/svg/icon-search.svg

<svg width="30" height="30" viewBox="0 0 30 30" fill="none" xmlns="http://www.w3.org/2000/svg">
<path d="M18.2099 6.27006C19.5466 7.60836 20.3832 9.36507 20.5798 11.2463C20.7764 13.1276 20.3211 15.0193 19.2899 16.6051C19.4699 16.7551 19.6199 16.9201 19.8299 17.0701C20.1299 17.3101 20.5349 17.6101 21.0449 17.9551C21.5549 18.3151 21.8849 18.5401 22.0349 18.6601C22.6649 19.1251 23.1299 19.5151 23.4449 19.8301C23.9249 20.3101 24.3449 20.8051 24.7049 21.3301C25.0799 21.8551 25.3649 22.3651 25.5899 22.8901C25.7999 23.4151 25.9049 23.9101 25.8599 24.3901C25.8299 24.8701 25.6499 25.2751 25.3199 25.6051C24.9899 25.9351 24.5849 26.1151 24.1049 26.1451C23.6399 26.1751 23.1299 26.0851 22.6199 25.8601C22.0949 25.6501 21.5699 25.3501 21.0599 24.9751C20.5349 24.6151 20.0399 24.1951 19.5599 23.7151C19.2449 23.4001 18.8549 22.9351 18.4049 22.3201C18.2549 22.1251 18.0299 21.7951 17.6999 21.3301C17.3699 20.8501 17.0999 20.4751 16.8599 20.1601C16.6199 19.8601 16.4249 19.6351 16.1999 19.4101C14.643 20.2253 12.8665 20.5223 11.1291 20.2579C9.39162 19.9935 7.7839 19.1815 6.53995 17.9401C3.32995 14.7151 3.32995 9.48006 6.53995 6.27006C7.30588 5.50321 8.21546 4.89485 9.21667 4.47979C10.2179 4.06472 11.2911 3.85107 12.3749 3.85107C13.4588 3.85107 14.532 4.06472 15.5332 4.47979C16.5344 4.89485 17.444 5.50321 18.2099 6.27006ZM16.0949 15.8101C17.0749 14.823 17.6248 13.4885 17.6248 12.0976C17.6248 10.7066 17.0749 9.37215 16.0949 8.38506C15.6079 7.8966 15.0293 7.50905 14.3923 7.24461C13.7552 6.98018 13.0722 6.84406 12.3824 6.84406C11.6927 6.84406 11.0097 6.98018 10.3726 7.24461C9.73558 7.50905 9.15696 7.8966 8.66995 8.38506C8.18149 8.87207 7.79394 9.45069 7.5295 10.0877C7.26507 10.7248 7.12895 11.4078 7.12895 12.0976C7.12895 12.7873 7.26507 13.4703 7.5295 14.1074C7.79394 14.7444 8.18149 15.323 8.66995 15.8101C9.15696 16.2985 9.73558 16.6861 10.3726 16.9505C11.0097 17.2149 11.6927 17.3511 12.3824 17.3511C13.0722 17.3511 13.7552 17.2149 14.3923 16.9505C15.0293 16.6861 15.6079 16.2985 16.0949 15.8101Z" fill="#2D3735"/>
</svg>

<svg width="30" height="30" viewBox="0 0 30 30" fill="none" xmlns="http://www.w3.org/2000/svg"><path d="M18.21 6.27a8.256 8.256 0 011.08 10.335c.18.15.33.315.54.465.3.24.705.54 1.215.885.51.36.84.585.99.705.63.465 1.095.855 1.41 1.17.48.48.9.975 1.26 1.5.375.525.66 1.035.885 1.56.21.525.315 1.02.27 1.5-.03.48-.21.885-.54 1.215-.33.33-.735.51-1.215.54-.465.03-.975-.06-1.485-.285a7.128 7.128 0 01-1.56-.885c-.525-.36-1.02-.78-1.5-1.26-.315-.315-.705-.78-1.155-1.395-.15-.195-.375-.525-.705-.99-.33-.48-.6-.855-.84-1.17-.24-.3-.435-.525-.66-.75a8.254 8.254 0 01-9.66-1.47c-3.21-3.225-3.21-8.46 0-11.67a8.247 8.247 0 0111.67 0zm-2.115 9.54a5.27 5.27 0 000-7.425 5.243 5.243 0 00-7.425 0 5.243 5.243 0 000 7.425 5.243 5.243 0 007.425 0z" fill="#2D3735"/></svg>
